archdroid-icon-theme/Archdroid-Amber/apps/scalable/cmake.svg

<svg height="48" width="48" xmlns="http://www.w3.org/2000/svg"><path d="m23.993222 6.059273 1.641672 19.151744-7.937368 6.785593 8.842317 3.639739z" fill="#ccc" stroke-width="2"/><path d="m26.544844 35.69379-2.551689-29.634447 18.006845 35.940657z" fill="#c00" stroke-width=".3"/><path d="m25.634945 25.210989-19.634945 16.785734 17.993155-35.93738z" fill="#00c"/><path d="m17.660277 31.981462 24.339723 10.018538-36-.003258 11.660277-10.015266z" fill="#0c0"/></svg>

<svg height="48" version="1.1" width="48" xmlns="http://www.w3.org/2000/svg"><path d="M23.993222 6.059273L25.634894 25.211017 17.697526 31.99661 26.539843 35.636349 23.993222 6.059273Z" fill="#ccc" stroke-width="2"/><g transform="translate(0 -1004.36218)"/><g transform="matrix(1.1 0 0 .44444 95.081063 -207.60746)"><g opacity=".4" transform="matrix(1.0526 0 0 1.2857 -1.2632 -13.429)"/></g><g transform="translate(97.481063 -232.71846)"/><g transform="translate(97.481063 -232.71846)"/><g transform="translate(-605.51932 -817.96833)"><g transform="translate(-926.66758 684.38448)"/></g><path d="M26.544844 35.69379L23.993155 6.059343 42 42 26.544844 35.69379Z" fill="#c00" stroke-width=".3"/><path d="M25.634945 25.210989L6 41.996723 23.993155 6.059343Z" fill="#00c"/><path d="M17.660277 31.981462L42 42 6 41.996742 17.660277 31.981476Z" fill="#0c0"/></svg>
